public/images/placeofinterrests/h-town.svg

<?xml version="1.0" encoding="UTF-8" standalone="no"?>
<svg width="140px" height="56px" viewBox="0 0 140 56" version="1.1" xmlns="http://www.w3.org/2000/svg" xmlns:xlink="http://www.w3.org/1999/xlink">
    <!-- Generator: Sketch 42 (36781) - http://www.bohemiancoding.com/sketch -->
    <title>Texas</title>
    <desc>Created with Sketch.</desc>
    <defs></defs>
    <g id="Page-1" stroke="none" stroke-width="1" fill="none" fill-rule="evenodd">
        <g id="Texas">
            <polygon id="Path-8" fill="#FFFFFF" points="0 0 7 54 129 56 140 4"></polygon>
            <path d="M18.4285565,19.1439995 L18.4285565,39.9159995 L22.1845565,39.9159995 L22.1845565,31.4199995 L28.6285565,31.4199995 L28.6285565,39.9159995 L32.3965565,39.9159995 L32.3965565,19.1439995 L28.6285565,19.1439995 L28.6285565,27.6519995 L22.1845565,27.6519995 L22.1845565,19.1439995 L18.4285565,19.1439995 Z M35.1605562,29.2 L35.1605562,32.968 L45.7325875,32.968 L45.7325875,29.2 L35.1605562,29.2 Z M45.5785721,19.1439995 L45.5785721,22.9119995 L50.6785721,22.9119995 L50.6785721,39.9159995 L54.4345721,39.9159995 L54.4345721,22.9119995 L59.5465721,22.9119995 L59.5465721,19.1439995 L45.5785721,19.1439995 Z M70.0145714,22.996 C66.3559796,22.996 63.3905714,25.9614082 63.3905714,29.62 C63.3905714,33.278688 66.3559796,36.244 70.0145714,36.244 C73.6732589,36.244 76.6385714,33.278688 76.6385714,29.62 C76.6385714,25.9614082 73.6732589,22.996 70.0145714,22.996 Z M70.0145714,19.24 C75.7515948,19.24 80.3945714,23.8829756 80.3945714,29.62 C80.3945714,35.3570239 75.7515948,40 70.0145714,40 C64.2776437,40 59.6225714,35.357312 59.6225714,29.62 C59.6225714,23.8827842 64.2776437,19.24 70.0145714,19.24 Z M81.7445873,19.144 L81.6005873,19.192 L81.4505712,19.192 L81.4505712,19.2430078 L81.4025712,19.2579844 L81.4505712,19.396 L81.4505712,19.552 L81.5045873,19.552 L88.2545712,39.802 L88.2545712,39.952 L88.305579,39.952 L88.3205868,40 L88.4645868,39.952 L91.8125555,39.952 L91.9565555,40 L91.9715634,39.952 L92.0225712,39.952 L92.0225712,39.802 L93.5345712,35.2419839 L95.0585712,39.811 L95.0585712,39.952 L95.1065712,39.952 L95.1245555,40 L95.2685555,39.952 L98.6165868,39.952 L98.7605868,40 L98.7755634,39.952 L98.8265712,39.952 L98.8265712,39.793 L105.579563,19.552 L105.630571,19.552 L105.630571,19.4019844 L105.678571,19.2579844 L105.630571,19.2430078 L105.630571,19.192 L105.480587,19.192 L105.336587,19.144 L105.321579,19.192 L102.072587,19.192 L101.928587,19.144 L101.913579,19.192 L101.862571,19.192 L101.862571,19.3420156 L96.9425712,34.1020156 L95.4305712,29.5719995 L98.7725555,19.5519995 L98.8265712,19.5519995 L98.8265712,19.3959995 L98.8745712,19.2579839 L98.8265712,19.2430073 L98.8265712,19.1919995 L98.6765555,19.1919995 L98.5325555,19.1439995 L98.517579,19.1919995 L95.2685555,19.1919995 L95.1245555,19.1439995 L95.1065712,19.1919995 L95.0585712,19.1919995 L95.0585712,19.3329917 L93.5345712,23.9020151 L92.0225712,19.3420151 L92.0225712,19.1919995 L91.9715634,19.1919995 L91.9565555,19.1439995 L91.8125555,19.1919995 L88.5635634,19.1919995 L88.5485555,19.1439995 L88.4045555,19.1919995 L88.2545712,19.1919995 L88.2545712,19.2430073 L88.2065712,19.2579839 L88.2545712,19.4019839 L88.2545712,19.5519995 L88.305579,19.5519995 L91.653579,29.5719995 L90.1385712,34.0929917 L85.2185712,19.3329917 L85.2185712,19.1919995 L85.1705712,19.1919995 L85.1525868,19.1439995 L85.0085868,19.1919995 L81.7595634,19.1919995 L81.7445873,19.144 Z M111.277579,19.156 L111.187563,19.228 L107.662571,19.228 L107.662571,40 L111.430571,40 L111.430571,25.06 L116.170571,31.372 L116.170571,31.492 L116.260587,31.492 L116.314571,31.564 L116.410571,31.492 L117.874571,31.492 L117.874571,40 L121.630571,40 L121.630571,19.228 L117.874571,19.228 L117.874571,27.4 L111.430571,19.3449922 L111.430571,19.228 L111.334571,19.228 L111.277579,19.156 Z" id="H-Town" fill="#18252D"></path>
        </g>
    </g>
</svg>

<svg width="140" height="56" viewBox="0 0 140 56" xmlns="http://www.w3.org/2000/svg"><title>Texas</title><g fill="none" fill-rule="evenodd"><path fill="#FFF" d="M0 0l7 54 122 2 11-52z"/><path d="M18.429 19.144v20.772h3.756V31.42h6.444v8.496h3.768V19.144h-3.768v8.508h-6.444v-8.508h-3.756zM35.16 29.2v3.768h10.572V29.2H35.16zm10.418-10.056v3.768h5.1v17.004h3.756V22.912h5.112v-3.768H45.579zm24.436 3.852a6.624 6.624 0 1 0 0 13.248 6.624 6.624 0 1 0 0-13.248zm0-3.756c5.737 0 10.38 4.643 10.38 10.38 0 5.737-4.643 10.38-10.38 10.38-5.737 0-10.392-4.643-10.392-10.38 0-5.737 4.655-10.38 10.392-10.38zm11.73-.096l-.144.048h-.15v.051l-.048.015.048.138v.156h.054l6.75 20.25v.15h.05l.016.048.144-.048h3.348l.144.048.015-.048h.05v-.15l1.513-4.56 1.524 4.569v.141h.048l.018.048.144-.048h3.348l.144.048.015-.048h.05v-.159l6.754-20.241h.05v-.15l.049-.144-.048-.015v-.051h-.15l-.144-.048-.015.048h-3.25l-.143-.048-.015.048h-.051v.15l-4.92 14.76-1.512-4.53 3.342-10.02h.054v-.156l.048-.138-.048-.015v-.051h-.15l-.144-.048-.015.048h-3.25l-.143-.048-.018.048h-.048v.141l-1.524 4.569-1.512-4.56v-.15h-.051l-.015-.048-.144.048h-3.25l-.014-.048-.144.048h-.15v.051l-.048.015.048.144v.15h.05l3.349 10.02-1.515 4.521-4.92-14.76v-.141h-.048l-.018-.048-.144.048h-3.25l-.014-.048zm29.533.012l-.09.072h-3.525V40h3.768V25.06l4.74 6.312v.12h.09l.054.072.096-.072h1.464V40h3.756V19.228h-3.756V27.4l-6.444-8.055v-.117h-.096l-.057-.072z" fill="#18252D"/></g></svg>
